X: 5343
T: Buachaill ón Éirne
R: waltz
M: 3/4
K: Gmajor
"G" B3 A B2|"C/G" A2 G2 E2|"G" D3 D D2|"C/G" E2 G2 A2|"G" G6-|"C/G" G4 D2|
"G" G3 A B2|"C/G" c2 B2 A2|"Bm" d3 d d2|"Em" B2 G2 B2|"D" A6-|A4 d2|
"G" d3 B A2|G2 A2 B2|"C" c3 d e2|"Em" d2 B2 G2|"D" A6-|A4 GA|
"G" B3 A B2|"C/G" A2 G2 E2|"G" D3 D D2|"C/G" E2 G2 A2|
[1 "G" G6-|"C/G" G6|"G" z8|"C/G" z8:|["Final" "G" G6-|G6||

